X:161
T:The Miller's Maggot
M:6/8
L:1/8
R:jig
D:Solas: Solas
Z:NJI
N:Set is The White Petticoat - Stan Chapman's - ~
K:G
G2A B2A|B2A BGE|G2A B2A|Bee dBA|
G2A B2A|B2A BGE|gfe dBA|1Bde dBA:|2Bde dBd|
|:e2f g2e|d2B BAG|e2f gfg|a2a bge|
e2f g2e|d2B BAG|A2B cBA|1Bde dBd:|2Bde dBA|G3 F3|E6||
